img/icon-crop.svg

<svg width="48" height="48" viewBox="0 0 48 48" fill="none" xmlns="http://www.w3.org/2000/svg">
<path d="M34 30H38V14C38 12.9391 37.5786 11.9217 36.8284 11.1716C36.0783 10.4214 35.0609 10 34 10H18V14H34V30ZM14 34V2H10V10H2V14H10V34C10 35.0609 10.4214 36.0783 11.1716 36.8284C11.9217 37.5786 12.9391 38 14 38H34V46H38V38H46V34H14Z" fill="#000"/>
</svg>

<svg width="48" height="48" fill="none" xmlns="http://www.w3.org/2000/svg"><path d="M34 30h4V14a4 4 0 0 0-4-4H18v4h16v16Zm-20 4V2h-4v8H2v4h8v20a4 4 0 0 0 4 4h20v8h4v-8h8v-4H14Z" fill="#000"/></svg>
